img/svg/gulp-icon.svg

<svg width="120" height="120" viewBox="0 0 120 120" fill="none" xmlns="http://www.w3.org/2000/svg">
<path d="M59.7825 90.3562C55.3429 90.3753 50.9159 89.8808 46.59 88.8825C45.3041 88.5924 44.0427 88.2025 42.8175 87.7163L45.8662 92.925L47.0587 109.2C47.0587 111.026 52.8562 112.504 60.0037 112.504C67.1512 112.504 72.9487 111.026 72.9487 109.2L73.8937 92.7488L76.7775 87.7012C75.5421 88.1953 74.2693 88.5903 72.9712 88.8825C68.6465 89.8805 64.2208 90.375 59.7825 90.3562V90.3562ZM76.875 37.3987C71.2775 38.0948 65.6404 38.4218 60 38.3775C54.3596 38.4218 48.7224 38.0948 43.125 37.3987C41.3471 37.1831 39.5908 36.8168 37.875 36.3037C37.4282 36.1651 36.9951 35.9856 36.5812 35.7675L39.375 61.5C39.505 61.0575 39.65 60.615 39.81 60.1725C40.1341 59.268 40.5097 58.3828 40.935 57.5212C41.3554 56.6774 41.8263 55.8597 42.345 55.0725C42.8344 54.3278 43.3757 53.6185 43.965 52.95C44.4989 52.3397 45.089 51.781 45.7275 51.2813C46.2875 50.8415 46.9012 50.4748 47.5537 50.19C48.1308 49.9425 48.7521 49.8149 49.38 49.815C50.0916 49.8194 50.7888 50.0163 51.3975 50.385C52.1369 50.854 52.7601 51.4849 53.22 52.23C53.343 52.4025 53.4275 52.5994 53.4675 52.8075C53.5012 52.9893 53.5187 53.1738 53.52 53.3588C53.5393 53.7045 53.4357 54.0459 53.2275 54.3225C53.1469 54.4309 53.0424 54.5191 52.922 54.5802C52.8016 54.6414 52.6687 54.6738 52.5337 54.675C52.399 54.6684 52.2675 54.6312 52.1492 54.5662C52.031 54.5013 51.9291 54.4102 51.8512 54.3C51.5836 53.9531 51.3477 53.5828 51.1462 53.1938C50.955 52.8211 50.6788 52.4987 50.34 52.2525C50.0578 52.0613 49.7246 51.9593 49.3837 51.96C48.7564 51.9935 48.1562 52.226 47.67 52.6238C46.9968 53.13 46.3907 53.7197 45.8662 54.3788C45.2302 55.1649 44.6572 56 44.1525 56.8763C43.6111 57.8042 43.1277 58.7648 42.705 59.7525C42.2993 60.6937 41.9646 61.6639 41.7037 62.655C41.4711 63.492 41.3451 64.3551 41.3287 65.2237C41.3297 65.4846 41.3472 65.7451 41.3812 66.0038C41.4109 66.2544 41.4766 66.4994 41.5762 66.7313C41.659 66.9361 41.7872 67.1195 41.9512 67.2675C42.1261 67.4112 42.3475 67.4859 42.5737 67.4775C42.9133 67.4618 43.244 67.364 43.5375 67.1925C43.9351 66.9782 44.3117 66.7271 44.6625 66.4425C45.0691 66.1156 45.4572 65.7663 45.825 65.3962C46.215 65.0087 46.5775 64.615 46.9125 64.215C47.2475 63.815 47.545 63.4325 47.805 63.0675C48.026 62.7654 48.2217 62.4456 48.39 62.1112L49.455 58.9238C49.5435 58.6271 49.7217 58.3651 49.965 58.1737C50.1534 58.0356 50.3801 57.9596 50.6137 57.9563C50.7221 57.9564 50.8298 57.9741 50.9325 58.0088C51.0436 58.0455 51.145 58.1067 51.2294 58.1878C51.3138 58.269 51.3789 58.3679 51.42 58.4775C51.4725 58.6138 51.498 58.759 51.495 58.905C51.4968 59.3153 51.4578 59.7249 51.3787 60.1275C51.3038 60.508 51.2061 60.8837 51.0862 61.2525C50.9687 61.615 50.8375 61.9788 50.6925 62.3438C50.5475 62.7088 50.4062 63.0912 50.2687 63.4912C50.2013 63.6286 50.1461 63.7717 50.1037 63.9188C50.0237 64.1688 49.9262 64.47 49.8112 64.8225C49.6962 65.175 49.5712 65.58 49.4362 66.0375L49.0237 67.4063C48.8812 67.8713 48.7462 68.3275 48.6187 68.775C48.4912 69.2225 48.375 69.6275 48.27 69.99L48.0112 70.8975C47.9437 71.1413 47.8987 71.2725 47.8837 71.3325C47.8372 71.4978 47.7757 71.6584 47.7 71.8125C47.6168 71.9887 47.5177 72.1569 47.4037 72.315C47.2976 72.4575 47.1713 72.5839 47.0287 72.69C46.9089 72.7881 46.7598 72.8435 46.605 72.8475C46.5028 72.8561 46.4 72.8382 46.3067 72.7955C46.2135 72.7528 46.1328 72.6868 46.0725 72.6038C45.9372 72.3255 45.8802 72.0157 45.9075 71.7075V71.5162C45.9039 71.4488 45.9039 71.3812 45.9075 71.3138C45.956 71.0367 46.0288 70.7644 46.125 70.5C46.2325 70.1025 46.3575 69.6525 46.5 69.15C46.6425 68.6475 46.8025 68.1275 46.98 67.59C47.1525 67.0525 47.3075 66.5713 47.445 66.1463C47.04 66.5988 46.6012 67.0488 46.1287 67.4963C45.6711 67.9306 45.185 68.334 44.6737 68.7037C44.2044 69.0447 43.7018 69.3374 43.1737 69.5775C42.7181 69.7919 42.2222 69.9069 41.7187 69.915C41.2349 69.9281 40.757 69.806 40.3387 69.5625C40.2675 69.5212 40.2037 69.4725 40.14 69.4238L41.6962 85.7437C42.1012 86.76 49.7287 89.2538 59.79 89.2538C69.8512 89.2538 77.4862 86.7563 77.8837 85.74L80.1337 66.3375L79.5975 66.8325C79.0189 67.3754 78.4131 67.8885 77.7825 68.37C77.269 68.7673 76.7101 69.1022 76.1175 69.3675C75.5681 69.6041 74.9756 69.7241 74.3775 69.72C73.8991 69.7518 73.4243 69.6195 73.0312 69.345C72.8753 69.2211 72.7509 69.062 72.6681 68.8808C72.5854 68.6997 72.5466 68.5015 72.555 68.3025V68.2013C72.5517 68.1626 72.5517 68.1237 72.555 68.085C72.6082 67.7514 72.7295 67.4323 72.9112 67.1475C73.1383 66.7661 73.3888 66.3992 73.6612 66.0488C73.9512 65.6688 74.26 65.2838 74.5875 64.8938C74.915 64.5038 75.2187 64.135 75.4987 63.7875C75.7474 63.4818 75.9791 63.1626 76.1925 62.8312C76.3451 62.6249 76.4396 62.3815 76.4662 62.1262C76.4681 62.0771 76.4586 62.0281 76.4385 61.9832C76.4183 61.9383 76.388 61.8987 76.35 61.8675C76.2387 61.7957 76.1069 61.7628 75.975 61.7737C75.646 61.7791 75.3227 61.8599 75.03 62.01C74.6837 62.182 74.36 62.3961 74.0662 62.6475C73.7351 62.929 73.4255 63.2348 73.14 63.5625C72.8395 63.9055 72.5567 64.2634 72.2925 64.635C72.03 65.005 71.79 65.38 71.5725 65.76C71.355 66.14 71.17 66.4862 71.0175 66.7987L70.8225 67.2187C70.7375 67.3987 70.6462 67.6025 70.5487 67.83C70.4512 68.0575 70.3462 68.29 70.2337 68.5275C70.1237 68.7775 70.0225 69.0038 69.93 69.2063L69.6825 69.7763C69.61 69.9438 69.5587 70.0587 69.5287 70.1212C69.4987 70.1837 69.4362 70.3375 69.3412 70.5825C69.2537 70.8075 69.1525 71.0725 69.0375 71.3775L68.6625 72.3337L68.3062 73.2825L68.0137 74.07C67.9312 74.295 67.875 74.445 67.8525 74.5313C67.7786 74.7587 67.6884 74.9806 67.5825 75.195C67.4863 75.3924 67.3667 75.5775 67.2262 75.7462C67.098 75.8982 66.9429 76.0253 66.7687 76.1212C66.5917 76.2177 66.3928 76.2668 66.1912 76.2638C65.9486 76.2741 65.7092 76.2057 65.5087 76.0688C65.4082 75.9736 65.3314 75.8561 65.2845 75.7259C65.2376 75.5956 65.2219 75.4562 65.2387 75.3187C65.2392 75.1317 65.2619 74.9454 65.3062 74.7638C65.3525 74.573 65.4101 74.3852 65.4787 74.2013C65.5462 74.0138 65.6175 73.8263 65.6925 73.6575C65.7675 73.4888 65.8312 73.3125 65.8912 73.1475C66.3037 72.2425 66.7237 71.3363 67.1512 70.4288C67.5787 69.5213 67.9887 68.6213 68.3812 67.7288C68.4637 67.5413 68.5387 67.3537 68.6175 67.1775L68.5462 67.2488C68.0741 67.7031 67.573 68.1265 67.0462 68.5163C66.5906 68.8598 66.0989 69.1527 65.58 69.39C65.1371 69.5975 64.6552 69.7087 64.1662 69.7162C63.8971 69.7246 63.6295 69.6734 63.3825 69.5663C63.1838 69.4753 63.011 69.3361 62.88 69.1613C62.7486 68.9784 62.6566 68.7703 62.61 68.55C62.61 68.4713 62.58 68.385 62.5687 68.3025C62.4337 68.4075 62.2987 68.5088 62.1637 68.6063C61.7251 68.9202 61.2566 69.1903 60.765 69.4125C60.3781 69.5986 59.9566 69.7021 59.5275 69.7162C59.3606 69.721 59.1946 69.6901 59.0406 69.6254C58.8867 69.5607 58.7484 69.4638 58.635 69.3412C58.371 68.9814 58.2494 68.5366 58.2937 68.0925C58.3029 67.6036 58.3645 67.117 58.4775 66.6413C58.2596 67.0201 58.0086 67.379 57.7275 67.7137C57.4245 68.0799 57.0825 68.4119 56.7075 68.7037C56.3173 69.0059 55.8853 69.2497 55.425 69.4275C54.9319 69.6161 54.4078 69.7102 53.88 69.705C53.6344 69.7062 53.3897 69.6747 53.1525 69.6112C52.9264 69.5508 52.7173 69.4392 52.5412 69.285C52.3539 69.1144 52.2089 68.9025 52.1175 68.6663C52.0011 68.3561 51.9463 68.0262 51.9562 67.695C51.9562 67.695 51.9562 67.5487 52.0012 67.2825C52.0678 66.8559 52.1656 66.4348 52.2937 66.0225C52.4587 65.4475 52.7087 64.6975 53.0437 63.7725C53.3787 62.8475 53.8637 61.74 54.4987 60.45C54.616 60.1563 54.8072 59.898 55.0537 59.7C55.2515 59.5543 55.4906 59.4755 55.7362 59.475C55.8492 59.4762 55.9614 59.4926 56.07 59.5238C56.1851 59.5555 56.2941 59.6062 56.3925 59.6738C56.4906 59.7412 56.5726 59.8296 56.6325 59.9325C56.6969 60.0466 56.7281 60.1765 56.7225 60.3075C56.7233 60.3949 56.7119 60.482 56.6887 60.5662C56.6278 60.7757 56.5448 60.9781 56.4412 61.17C56.3162 61.42 56.1687 61.705 55.9987 62.025C55.8287 62.345 55.6512 62.6912 55.4662 63.0637C55.2787 63.4337 55.105 63.8175 54.945 64.215C54.785 64.612 54.6473 65.0176 54.5325 65.43C54.4212 65.8211 54.3558 66.2238 54.3375 66.63C54.3365 66.7864 54.3766 66.9402 54.4537 67.0762C54.4909 67.1418 54.5458 67.1956 54.6121 67.2314C54.6784 67.2672 54.7535 67.2836 54.8287 67.2788C55.3425 67.2731 55.8409 67.1022 56.25 66.7913C56.7204 66.4459 57.1407 66.037 57.4987 65.5762C57.885 65.0848 58.2311 64.5632 58.5337 64.0162C58.8437 63.4612 59.1012 62.9525 59.3062 62.49C59.4537 62.1689 59.579 61.8382 59.6812 61.5C59.7889 61.1686 59.9141 60.8431 60.0562 60.525C60.1676 60.2546 60.318 60.0019 60.5025 59.775C60.5776 59.6802 60.6734 59.6038 60.7826 59.5518C60.8918 59.4998 61.0115 59.4735 61.1325 59.475C61.2583 59.4704 61.3833 59.4963 61.497 59.5505C61.6106 59.6047 61.7094 59.6856 61.785 59.7863C61.9481 60.0016 62.0328 60.2662 62.025 60.5362C62.0106 60.7669 61.9587 60.9936 61.8712 61.2075C61.7687 61.4925 61.6437 61.8175 61.4962 62.1825C61.3487 62.5475 61.1787 62.9388 60.9862 63.3563C60.8037 63.7738 60.6337 64.1962 60.4762 64.6237C60.3293 65.0369 60.2042 65.4575 60.1012 65.8838C60.0031 66.2585 59.9515 66.6439 59.9475 67.0313C59.9391 67.0986 59.9465 67.1669 59.9691 67.2309C59.9916 67.2949 60.0287 67.3528 60.0774 67.4001C60.1261 67.4473 60.1851 67.4826 60.2497 67.5032C60.3144 67.5238 60.3829 67.5291 60.45 67.5187C60.7576 67.5002 61.0578 67.4171 61.3312 67.275C61.7237 67.0869 62.0946 66.8568 62.4375 66.5888C62.535 66.5138 62.6325 66.4387 62.7262 66.36C62.8232 65.9432 62.9485 65.5335 63.1012 65.1337C63.3687 64.4287 63.64 63.7275 63.915 63.03L64.665 61.1175L68.1337 52.3688C68.2321 52.065 68.427 51.8017 68.6887 51.6188C68.8985 51.4811 69.1429 51.4057 69.3937 51.4012C69.6287 51.4009 69.8565 51.4817 70.0387 51.63C70.1428 51.7234 70.2235 51.8399 70.2743 51.9701C70.3251 52.1004 70.3446 52.2408 70.3312 52.38C70.3285 52.5556 70.2955 52.7294 70.2337 52.8937C70.1612 53.0928 70.0786 53.2881 69.9862 53.4787C69.7962 53.9037 69.5687 54.4238 69.3037 55.0388C69.0387 55.6538 68.7562 56.3225 68.4562 57.045C68.1537 57.7675 67.845 58.5175 67.53 59.295L66.6037 61.5787C66.3037 62.3287 66.0212 63.0312 65.7562 63.6862L65.0737 65.415C64.979 65.6532 64.8964 65.896 64.8262 66.1425C64.7507 66.3855 64.7103 66.6381 64.7062 66.8925C64.7006 67.0052 64.7239 67.1175 64.7737 67.2187C64.8015 67.2619 64.8408 67.2964 64.8872 67.3183C64.9336 67.3402 64.9853 67.3485 65.0362 67.3425C65.2458 67.3289 65.4503 67.2714 65.6362 67.1738C65.9068 67.0442 66.1675 66.8951 66.4162 66.7275C66.6962 66.5425 66.9862 66.33 67.2862 66.09C67.5862 65.85 67.8862 65.6 68.1862 65.34C68.4837 65.09 68.7687 64.8325 69.0412 64.5675C69.3137 64.3025 69.5562 64.065 69.7687 63.855C69.8188 63.8045 69.8788 63.7649 69.945 63.7387C70.0725 63.3637 70.1925 62.9888 70.2937 62.6138C70.3537 62.4513 70.4375 62.22 70.545 61.92C70.6551 61.6201 70.7803 61.326 70.92 61.0388C71.0451 60.7714 71.2012 60.5197 71.385 60.2887C71.4504 60.2017 71.5346 60.1305 71.6313 60.0805C71.7281 60.0305 71.8349 60.003 71.9437 60C72.0628 59.9892 72.1828 60.0022 72.2967 60.0382C72.4107 60.0743 72.5163 60.1327 72.6075 60.21C72.681 60.2944 72.7371 60.3925 72.7725 60.4987C72.8079 60.6049 72.8219 60.7171 72.8137 60.8288C72.8112 60.9154 72.8037 61.0018 72.7912 61.0875C72.7912 61.2038 72.7575 61.3312 72.735 61.4625C72.7125 61.5937 72.6862 61.7175 72.66 61.8375C72.6418 61.9256 72.6167 62.0121 72.585 62.0963C72.8675 61.7888 73.1725 61.4838 73.5 61.1813C73.8205 60.8842 74.1613 60.6098 74.52 60.36C74.8569 60.1242 75.2177 59.9244 75.5962 59.7638C75.9435 59.6149 76.3171 59.5372 76.695 59.535C76.9489 59.5353 77.2014 59.5719 77.445 59.6437C77.6829 59.7112 77.9074 59.819 78.1087 59.9625C78.3037 60.1024 78.4662 60.2827 78.585 60.4913C78.7127 60.7201 78.7761 60.9793 78.7687 61.2412C78.7597 61.6529 78.6639 62.058 78.4875 62.43C78.2886 62.8716 78.0528 63.2956 77.7825 63.6975C77.5 64.1225 77.195 64.5362 76.8675 64.9387C76.54 65.3412 76.2325 65.7075 75.945 66.0375L75.2212 66.8775C75.0864 67.0092 74.9826 67.1694 74.9175 67.3462C74.9159 67.4454 74.9537 67.5411 75.0225 67.6125C75.12 67.6897 75.2437 67.726 75.3675 67.7137C75.5732 67.6873 75.7697 67.6128 75.9412 67.4963C76.31 67.27 76.6633 67.0194 76.9987 66.7462C77.4537 66.3887 78.03 65.91 78.7275 65.31C79.2075 64.8975 79.7662 64.4062 80.4 63.8475L83.43 35.7975C83.0162 36.0157 82.5831 36.1953 82.1362 36.3338C80.4159 36.8373 78.6558 37.1936 76.875 37.3987V37.3987ZM60 30.75C46.905 30.75 36.2925 32.2125 36.2925 34.02C36.2925 35.8275 46.875 37.2825 60 37.2825C73.125 37.2825 83.7075 35.82 83.7075 34.0125C83.7075 32.205 73.08 30.75 60 30.75ZM69.465 34.9762C69.465 35.4 68.205 35.7263 66.6487 35.7263C65.0925 35.7263 63.8325 35.3812 63.8325 34.9762C63.8325 34.5712 65.0925 34.2263 66.6487 34.2263C68.205 34.2263 69.4537 34.545 69.4537 34.9688L69.465 34.9762Z" fill="#DA4648"/>
<path d="M64.3875 34.6275C64.3737 34.6474 64.3659 34.6708 64.365 34.695C64.365 34.9688 65.3812 35.19 66.615 35.19C67.8487 35.19 68.865 34.9688 68.865 34.695L71.8275 22.695L83.61 10.2563C83.8575 9.97501 83.355 9.10126 82.515 8.35126C81.675 7.60126 80.7675 7.35001 80.4862 7.63501L67.9575 20.8463L64.3875 34.6275Z" fill="#DA4648"/>
</svg>

<svg width="120" height="120" fill="none" xmlns="http://www.w3.org/2000/svg"><path d="M59.782 90.356c-4.44.02-8.866-.475-13.192-1.474a25.356 25.356 0 01-3.773-1.166l3.05 5.209 1.192 16.275c0 1.826 5.797 3.304 12.945 3.304 7.147 0 12.945-1.478 12.945-3.304l.945-16.451 2.883-5.048c-1.235.494-2.508.89-3.806 1.181a57.57 57.57 0 01-13.189 1.474zM76.876 37.4A128.558 128.558 0 0160 38.377c-5.64.045-11.278-.282-16.875-.978a31.603 31.603 0 01-5.25-1.095 7.615 7.615 0 01-1.294-.537L39.375 61.5a25.176 25.176 0 011.56-3.979c.42-.844.891-1.661 1.41-2.449.49-.744 1.03-1.454 1.62-2.122a12.928 12.928 0 011.762-1.669 8.392 8.392 0 011.827-1.091 4.631 4.631 0 011.826-.375 3.941 3.941 0 012.017.57 5.78 5.78 0 011.823 1.845c.123.173.208.37.248.578.033.181.05.366.052.55a1.46 1.46 0 01-.293.965.873.873 0 01-.693.352.889.889 0 01-.683-.375 7.334 7.334 0 01-.705-1.106 2.67 2.67 0 00-.806-.942 1.699 1.699 0 00-.956-.292 2.955 2.955 0 00-1.714.664 9.939 9.939 0 00-1.804 1.755 19.227 19.227 0 00-1.713 2.497 26.026 26.026 0 00-1.448 2.877c-.406.94-.74 1.91-1.001 2.902-.233.837-.359 1.7-.375 2.569a6 6 0 00.052.78c.03.25.096.495.195.727.083.205.211.389.375.537a.926.926 0 00.623.21c.34-.016.67-.114.964-.285a7.231 7.231 0 001.125-.75c.406-.327.794-.677 1.162-1.047a18.659 18.659 0 001.98-2.329c.221-.302.417-.621.585-.956l1.065-3.187a1.5 1.5 0 01.51-.75 1.13 1.13 0 01.649-.218c.108 0 .216.018.319.053a.783.783 0 01.487.468c.052.137.078.282.075.428a6.2 6.2 0 01-.116 1.222 9.63 9.63 0 01-.293 1.125c-.117.363-.248.727-.393 1.092a26.02 26.02 0 00-.424 1.147c-.068.138-.123.28-.165.428l-.293.904c-.115.352-.24.757-.375 1.215l-.412 1.368c-.143.465-.278.921-.405 1.369l-.349 1.215-.259.907c-.067.244-.112.375-.127.435a2.821 2.821 0 01-.184.48 3.182 3.182 0 01-.296.503 1.828 1.828 0 01-.375.375.697.697 0 01-.424.157.597.597 0 01-.532-.243 1.706 1.706 0 01-.166-.897v-.19a1.898 1.898 0 010-.203 4.8 4.8 0 01.218-.814c.108-.397.233-.847.375-1.35.142-.503.303-1.023.48-1.56l.465-1.444c-.405.453-.844.903-1.316 1.35a14.2 14.2 0 01-1.455 1.208c-.47.34-.972.633-1.5.874a3.559 3.559 0 01-1.455.337 2.603 2.603 0 01-1.38-.353 1.891 1.891 0 01-.199-.138l1.556 16.32c.405 1.016 8.033 3.51 18.094 3.51 10.061 0 17.696-2.498 18.094-3.514l2.25-19.402-.537.495a23.456 23.456 0 01-1.814 1.537 8.19 8.19 0 01-1.665.998 4.324 4.324 0 01-1.74.352c-.479.032-.954-.1-1.347-.375a1.264 1.264 0 01-.476-1.043v-.1a.684.684 0 010-.117c.053-.334.174-.653.356-.938.227-.38.478-.748.75-1.098.29-.38.599-.765.927-1.155.327-.39.63-.759.91-1.107.25-.305.481-.624.694-.956.153-.206.248-.45.274-.705a.32.32 0 00-.116-.258.6.6 0 00-.375-.094 2.148 2.148 0 00-.945.236c-.346.172-.67.386-.964.638-.33.281-.64.587-.926.914a13.486 13.486 0 00-1.567 2.198c-.218.38-.403.726-.555 1.039l-.195.42c-.085.18-.177.384-.274.611-.098.228-.203.46-.315.698-.11.25-.212.476-.304.678l-.248.57a9.839 9.839 0 01-.153.345 9.05 9.05 0 00-.188.462c-.087.225-.188.49-.303.794l-.376.957-.356.948-.292.788c-.083.225-.139.375-.161.461-.074.228-.165.45-.27.664a2.73 2.73 0 01-.357.551c-.128.152-.283.28-.457.375a1.17 1.17 0 01-.578.143 1.126 1.126 0 01-.682-.195.886.886 0 01-.27-.75c0-.187.023-.374.067-.555.047-.191.104-.379.173-.563.067-.187.139-.375.213-.543.076-.17.14-.346.2-.51.412-.905.832-1.812 1.26-2.72.427-.907.837-1.807 1.23-2.7.082-.187.157-.374.236-.55l-.072.07c-.472.455-.973.878-1.5 1.268a7.877 7.877 0 01-1.466.874 3.458 3.458 0 01-1.414.326 1.827 1.827 0 01-.783-.15 1.309 1.309 0 01-.503-.405 1.624 1.624 0 01-.27-.611c0-.079-.03-.165-.041-.248-.135.105-.27.207-.405.304a8.222 8.222 0 01-1.399.806 3.09 3.09 0 01-1.237.304 1.17 1.17 0 01-.893-.375 1.808 1.808 0 01-.341-1.248c.009-.49.07-.976.184-1.452a7.422 7.422 0 01-.75 1.073 6.525 6.525 0 01-1.02.99 5.09 5.09 0 01-1.283.724 4.209 4.209 0 01-1.545.277c-.246.001-.49-.03-.727-.094a1.525 1.525 0 01-.612-.326 1.635 1.635 0 01-.423-.619 2.548 2.548 0 01-.162-.971s0-.146.045-.412c.067-.427.165-.848.293-1.26.165-.575.415-1.325.75-2.25.335-.926.82-2.033 1.455-3.323.117-.294.308-.552.555-.75a1.155 1.155 0 011.016-.176c.115.032.224.082.322.15a.8.8 0 01.24.258.702.702 0 01.09.375.951.951 0 01-.033.26 3.074 3.074 0 01-.248.603c-.125.25-.272.535-.442.855-.17.32-.348.666-.533 1.039-.187.37-.361.754-.521 1.151-.16.397-.298.803-.413 1.215a5.247 5.247 0 00-.194 1.2.884.884 0 00.116.446.401.401 0 00.375.203 2.393 2.393 0 001.421-.488c.47-.345.89-.754 1.249-1.215.386-.491.732-1.013 1.035-1.56a18.8 18.8 0 00.772-1.526c.148-.321.273-.652.375-.99a9.87 9.87 0 01.375-.975 3 3 0 01.447-.75.792.792 0 01.63-.3.78.78 0 01.652.311c.163.216.248.48.24.75-.014.23-.066.458-.154.672a27.272 27.272 0 01-.885 2.148c-.182.418-.352.84-.51 1.268-.147.413-.272.834-.375 1.26-.098.374-.15.76-.154 1.147a.437.437 0 00.503.488c.308-.019.608-.102.881-.244a6.025 6.025 0 001.106-.686 8.6 8.6 0 00.29-.229c.096-.417.222-.826.374-1.226.268-.705.539-1.407.814-2.104l.75-1.913 3.469-8.748c.098-.304.293-.567.555-.75a1.33 1.33 0 01.705-.218c.235 0 .462.08.645.229a.893.893 0 01.292.75c-.002.176-.035.35-.097.514a6.22 6.22 0 01-.248.585 164.588 164.588 0 00-1.53 3.566c-.302.722-.611 1.472-.926 2.25l-.926 2.284c-.3.75-.583 1.452-.848 2.107l-.682 1.729a7.614 7.614 0 00-.248.727 2.673 2.673 0 00-.12.75.664.664 0 00.068.327.274.274 0 00.262.124 1.5 1.5 0 00.6-.17 6.13 6.13 0 00.78-.445c.28-.185.57-.398.87-.638.3-.24.6-.49.9-.75.298-.25.583-.508.855-.773.273-.264.515-.502.728-.712.05-.05.11-.09.176-.116.128-.375.248-.75.349-1.125.06-.163.144-.394.251-.694.11-.3.235-.594.375-.881.125-.268.281-.52.465-.75a.724.724 0 01.559-.289.901.901 0 01.663.21.848.848 0 01.207.619 2.24 2.24 0 01-.023.258c0 .117-.034.244-.056.375a8.367 8.367 0 01-.075.375 1.725 1.725 0 01-.075.26c.283-.308.588-.613.915-.916a9.37 9.37 0 011.02-.821 5.887 5.887 0 011.076-.596 2.83 2.83 0 011.099-.229c.254 0 .506.037.75.109.238.067.462.175.664.319.195.14.357.32.476.528.128.23.191.488.184.75a2.924 2.924 0 01-.282 1.189 8.598 8.598 0 01-.704 1.267c-.283.425-.588.84-.915 1.242-.328.402-.635.769-.923 1.099l-.724.84a1.268 1.268 0 00-.303.468c-.002.1.036.195.104.266a.48.48 0 00.346.102 1.32 1.32 0 00.573-.218 9.742 9.742 0 001.058-.75 52.649 52.649 0 001.729-1.436c.48-.413 1.038-.904 1.672-1.463l3.03-28.05a7.593 7.593 0 01-1.294.537c-1.72.503-3.48.86-5.261 1.065zM60 30.75c-13.095 0-23.708 1.462-23.708 3.27 0 1.807 10.583 3.262 23.708 3.262 13.125 0 23.707-1.462 23.707-3.27 0-1.807-10.627-3.262-23.707-3.262zm9.465 4.226c0 .424-1.26.75-2.816.75-1.556 0-2.816-.345-2.816-.75s1.26-.75 2.816-.75c1.556 0 2.805.319 2.805.743l.011.007z" fill="#DA4648"/><path d="M64.388 34.627a.127.127 0 00-.023.068c0 .274 1.016.495 2.25.495s2.25-.221 2.25-.495l2.963-12L83.61 10.256c.248-.281-.255-1.155-1.095-1.905s-1.748-1.001-2.029-.716L67.957 20.846l-3.57 13.781z" fill="#DA4648"/></svg>
